assets/symbols/mulberry/houses_of_parliament.svg

<svg height="850.394" viewBox="0 0 850.394 850.394" width="850.394" xmlns="http://www.w3.org/2000/svg"><g fill="#f6cc4b"><path d="m700.513 519.529h17.811v49.76h-17.811zm0 49.76h17.811v52.872h-17.811zm-64.037 0h1.615v52.872h-1.615zm0-49.76h1.615v49.76h-1.615z"/><path d="m636.476 519.529h1.615v49.76h-1.615zm0 49.76h1.615v52.872h-1.615zm153.514-233.935v66.915h-40.795v-11.796c12.451 0 22.516-10.088 22.516-22.516 0-12.405-10.064-22.469-22.516-22.469v-10.134z"/><path d="m788.024 333.107v2.247h-75.926v-2.247l24.458-57.342v-.585h27.009v.585zm-69.701 289.054h62.422v44.399h-62.422zm0-52.872h62.422v52.872h-62.422zm0-49.76v-1.404h62.422v51.164h-62.422zm62.422-44.141v42.737h-62.422v-42.737h.796zm0-71.714v71.714h-62.422v-71.714z"/></g><path d="m749.195 345.489c12.451 0 22.516 10.064 22.516 22.469 0 12.428-10.064 22.516-22.516 22.516-12.405 0-22.47-10.088-22.47-22.516.001-12.405 10.065-22.469 22.47-22.469z" fill="#fff"/><path d="m763.565 247.351v27.829h-27.009v-27.829l.445-2.247h26.12zm-13.504-67.476 13.06 65.229h-26.12z" fill="#c8c8c8"/><path d="m749.195 390.474v11.796h-39.063v-66.915h39.064v10.134c-12.405 0-22.47 10.064-22.47 22.469 0 12.428 10.064 22.516 22.469 22.516zm-30.872 276.087v.023h-17.81v-44.423h17.81zm-17.81.023v.023h-62.422v-44.446h62.422zm0-97.295v52.872h-62.422v-52.872zm-22.259 34.03v-28.671h-16.056v28.671zm22.259-83.79v49.76h-62.422v-49.76zm-21.159 32.604v-28.671h-16.032v28.671zm21.159-34.008v1.404h-62.422v-51.139h62.422z" fill="#f6cc4b"/><path d="m698.383 465.861v2.529h-58.607v-2.763l16.43-27.337h25.324l16.595 27.571z" fill="#c8c8c8"/><path d="m663.321 523.462h16.032v28.671h-16.032zm-1.123 51.186h16.056v28.671h-16.056z" fill="#fff"/><path d="m576.044 622.161h60.432v44.423h-60.432zm0-52.872h60.432v52.872h-60.432zm0-49.76h60.432v49.76h-60.432z" fill="#f6cc4b"/><path d="m576.044 503.777h60.432v15.752h-60.432zm-4.377 65.512h4.377v52.872h-4.377z" fill="#fff"/><path d="m571.667 519.529h4.377v49.76h-4.377zm-62.444 102.632h62.444v44.399h-62.444zm62.444-52.872v52.872h-62.444v-52.872zm-22.773 37.401v-28.695h-16.032v28.695zm22.773-87.161v49.76h-62.444v-49.76zm-22.773 32.604v-28.671h-16.032v28.671zm20.667-83.79h2.106v51.186h-62.444v-51.186h1.731z" fill="#f6cc4b"/><path d="m569.561 465.814v2.529h-58.607v-2.809l16.431-27.267h25.301l16.593 27.547z" fill="#c8c8c8"/><path d="m532.861 577.995h16.032v28.695h-16.032zm0-54.533h16.032v28.671h-16.032z" fill="#fff"/><path d="m504.611 622.161v44.4h-88.729v-9.269h16.033v-35.131zm0-52.872v52.872h-375.371v-52.872zm-71.573 37.401v-28.672h-16.009v28.672zm-76.464.562v-28.672h-16.056v28.672zm-75.926 0v-28.672h-16.009v28.672zm-76.465.561v-28.694h-16.032v28.694zm300.428-88.284v49.76h-87.582v-13.763h16.009v-35.997z" fill="#f6cc4b"/><path d="m504.611 503.777v15.752h-375.371v-15.752zm-87.582 74.242h16.009v28.672h-16.009zm0-51.187h16.009v28.694h-16.009z" fill="#fff"/><path d="m433.038 519.529v7.303h-16.009v42.457h-76.511v-13.225h16.056v-36.535z" fill="#f6cc4b"/><path d="m415.882 628.621h16.033v28.671h-16.033z" fill="#fff"/><path d="m431.915 622.161v6.46h-16.033v37.94h-76.464v-8.707h16.033v-35.693z" fill="#f6cc4b"/><path d="m340.518 578.58h16.056v28.672h-16.056zm0-51.186h16.056v28.671h-16.056z" fill="#fff"/><path d="m356.574 519.529v7.865h-16.056v41.895h-75.879v-13.225h16.009v-36.535z" fill="#f6cc4b"/><path d="m339.418 629.183h16.033v28.671h-16.033z" fill="#fff"/><path d="m355.451 622.161v7.022h-16.033v37.378h-75.903v-8.707h16.009v-35.693z" fill="#f6cc4b"/><path d="m264.639 578.58h16.009v28.672h-16.009zm0-51.186h16.009v28.671h-16.009z" fill="#fff"/><path d="m280.648 519.529v7.865h-16.009v41.895h-76.488v-12.639h16.032v-37.121z" fill="#f6cc4b"/><path d="m263.515 629.183h16.009v28.671h-16.009z" fill="#fff"/><path d="m279.524 622.161v7.022h-16.009v37.378h-76.488v-8.123h16.01v-36.277z" fill="#f6cc4b"/><path d="m188.151 579.119h16.032v28.694h-16.032zm0-51.164h16.032v28.695h-16.032z" fill="#fff"/><path d="m204.183 519.529v8.426h-16.032v41.334h-58.911v-49.76z" fill="#f6cc4b"/><path d="m187.027 629.744h16.009v28.694h-16.009z" fill="#fff"/><path d="m203.037 622.161v7.583h-16.01v36.817h-57.787v-44.4zm-77.308 0v44.54h-62.421v-44.54h.421zm0-52.872v52.872h-62.421v-52.872zm-23.334 34.593v-28.672h-16.033v28.672zm23.334-84.353v49.76h-62.421v-49.76zm-22.211 33.75v-28.694h-16.033v28.694zm20.105-84.797h2.106v51.047h-62.421v-51.047h1.685z" fill="#f6cc4b"/><path d="m123.623 465.955v2.527h-58.63v-2.761l16.454-27.314h25.301l16.57 27.548z" fill="#c8c8c8"/><path d="m87.485 524.585h16.033v28.694h-16.033zm-1.123 50.625h16.033v28.672h-16.033z" fill="#fff"/><g fill="none" stroke="#231f20" stroke-width="14.527"><path d="m504.611 622.161v44.4h-375.371v-162.784h375.371v65.512zm131.865 0v44.423h-60.432v-162.807h60.432v65.512zm-64.809 0v44.4h-62.444v-198.218h62.444v100.946zm-2.388-156.347-16.593-27.547h-25.301l-16.431 27.267-.164.28m.164-46.107v50.18m58.607-50.18v50.18m-443.832 152.274v44.54h-62.421v-198.219h62.421v100.807zm-2.411-156.206-16.57-27.548h-25.301l-16.454 27.314-.14.234m.14-46.108v50.18m58.63-50.203v50.203m576.89 196.557v.023h-62.422v-198.217h62.422v153.771zm-2.388-200.723-16.595-27.571h-25.324l-16.43 27.337-.14.234m.14-46.108v50.181m58.607-50.204v50.204m82.362 152.227v44.4h-62.422v-262.887h62.422v165.615zm-717.016 0h718.678m-719.802-52.872h718.655m-724.295-49.76h718.678m12.381-184.175h1.966v66.916h-79.858v-66.916h39.063z"/><path d="m749.195 345.489c12.451 0 22.516 10.064 22.516 22.469 0 12.428-10.064 22.516-22.516 22.516-12.405 0-22.47-10.088-22.47-22.516.001-12.405 10.065-22.469 22.47-22.469zm38.829-12.382-24.459-57.342v-28.414l-.444-2.247-13.06-65.229-13.06 65.229-.445 2.247v28.414l-24.458 57.342m23.896-88.003h27.571m-25.019 30.076h22.469m-64.365 242.945h83.205m-60.736-42.737h62.984m-83.908 191.196h26.987m-537.031-138.629h16.032v28.695h-16.032zm-101.789 47.255h16.033v28.672h-16.033zm1.123-50.625h16.033v28.694h-16.033zm100.666 54.534h16.032v28.694h-16.032zm344.71-55.657h16.032v28.671h-16.032zm130.46 0h16.032v28.671h-16.032zm-1.123 51.186h16.056v28.671h-16.056zm-129.337 3.347h16.032v28.695h-16.032zm-345.834 51.749h16.009v28.694h-16.009zm77.612-102.35h16.009v28.671h-16.009zm0 51.186h16.009v28.672h-16.009zm-1.124 50.603h16.009v28.671h-16.009zm77.003-101.789h16.056v28.671h-16.056zm0 51.186h16.056v28.672h-16.056zm-1.1 50.603h16.033v28.671h-16.033zm77.611-102.351h16.009v28.694h-16.009zm0 51.187h16.009v28.672h-16.009zm-1.147 50.602h16.033v28.671h-16.033z"/><path d="m195.594 476.511v26.425m77.47-26.167v26.447m75.903-26.869v26.448m75.927-26.448v26.448" stroke-linecap="round" stroke-linejoin="round"/></g><path d="m0 0h850.394v850.394h-850.394z" fill="none"/><path d="m0 0h850.394v850.394h-850.394z" fill="none"/></svg>

<svg xmlns="http://www.w3.org/2000/svg" width="850.394" height="850.394" viewBox="0 0 850.394 850.394" overflow="visible"><path fill="#f6cc4b" d="M700.513 519.529h17.811v49.76h-17.811zM700.513 569.289h17.811v52.872h-17.811zM636.476 569.289h1.615v52.872h-1.615zM636.476 519.529h1.615v49.76h-1.615z"/><path fill="#f6cc4b" d="M636.476 519.529h1.615v49.76h-1.615zM636.476 569.289h1.615v52.872h-1.615zM789.99 335.354v66.915h-40.795v-11.796c12.451 0 22.516-10.088 22.516-22.516 0-12.405-10.064-22.469-22.516-22.469v-10.134h40.795z"/><path fill="#f6cc4b" d="M788.024 333.107v2.247h-75.926v-2.247l24.458-57.342v-.585h27.009v.585zM718.323 622.161h62.422v44.399h-62.422zM718.323 569.289h62.422v52.872h-62.422zM718.323 519.529v-1.404h62.422v51.164h-62.422zM780.745 475.388v42.737h-62.422v-42.737h.796zM780.745 403.674v71.714h-62.422v-71.714z"/><path d="M749.195 345.489c12.451 0 22.516 10.064 22.516 22.469 0 12.428-10.064 22.516-22.516 22.516-12.405 0-22.47-10.088-22.47-22.516.001-12.405 10.065-22.469 22.47-22.469z" fill="#fff"/><path fill="#c8c8c8" d="M763.565 247.351v27.829h-27.009v-27.829l.445-2.247h26.12zM750.061 179.875l13.06 65.229h-26.12z"/><path d="M749.195 390.474v11.796h-39.063v-66.915h39.064v10.134c-12.405 0-22.47 10.064-22.47 22.469 0 12.428 10.064 22.516 22.469 22.516zM718.323 666.561v.023h-17.81v-44.423h17.81zM700.513 666.584v.023h-62.422v-44.446h62.422zM700.513 569.289v52.872h-62.422v-52.872h62.422zm-22.259 34.03v-28.671h-16.056v28.671h16.056zM700.513 519.529v49.76h-62.422v-49.76h62.422zm-21.159 32.604v-28.671h-16.032v28.671h16.032zM700.513 518.125v1.404h-62.422V468.39H700.513z" fill="#f6cc4b"/><path fill="#c8c8c8" d="M698.383 465.861v2.529h-58.607v-2.763l16.43-27.337h25.324l16.595 27.571z"/><path fill="#fff" d="M663.321 523.462h16.032v28.671h-16.032zM662.198 574.648h16.056v28.671h-16.056z"/><path fill="#f6cc4b" d="M576.044 622.161h60.432v44.423h-60.432zM576.044 569.289h60.432v52.872h-60.432zM576.044 519.529h60.432v49.76h-60.432z"/><path fill="#fff" d="M576.044 503.777h60.432v15.752h-60.432zM571.667 569.289h4.377v52.872h-4.377z"/><path fill="#f6cc4b" d="M571.667 519.529h4.377v49.76h-4.377zM509.223 622.161h62.444v44.399h-62.444zM571.667 569.289v52.872h-62.444v-52.872h62.444zm-22.773 37.401v-28.695h-16.032v28.695h16.032zM571.667 519.529v49.76h-62.444v-49.76h62.444zm-22.773 32.604v-28.671h-16.032v28.671h16.032zM569.561 468.343h2.106v51.186h-62.444v-51.186h1.731z"/><path fill="#c8c8c8" d="M569.561 465.814v2.529h-58.607v-2.809l16.431-27.267h25.301l16.593 27.547z"/><path fill="#fff" d="M532.861 577.995h16.032v28.695h-16.032zM532.861 523.462h16.032v28.671h-16.032z"/><path fill="#f6cc4b" d="M504.611 622.161v44.4h-88.729v-9.269h16.033v-35.131zM504.611 569.289v52.872H129.24v-52.872h375.371zm-71.573 37.401v-28.672h-16.009v28.672h16.009zm-76.464.562V578.58h-16.056v28.672h16.056zm-75.926 0V578.58h-16.009v28.672h16.009zm-76.465.561v-28.694h-16.032v28.694h16.032zM504.611 519.529v49.76h-87.582v-13.763h16.009v-35.997z"/><path fill="#fff" d="M504.611 503.777v15.752H129.24v-15.752zM417.029 578.019h16.009v28.672h-16.009zM417.029 526.832h16.009v28.694h-16.009z"/><path fill="#f6cc4b" d="M433.038 519.529v7.303h-16.009v42.457h-76.511v-13.225h16.056V519.529z"/><path fill="#fff" d="M415.882 628.621h16.033v28.671h-16.033z"/><path fill="#f6cc4b" d="M431.915 622.161v6.46h-16.033v37.94h-76.464v-8.707h16.033v-35.693z"/><path fill="#fff" d="M340.518 578.58h16.056v28.672h-16.056zM340.518 527.394h16.056v28.671h-16.056z"/><path fill="#f6cc4b" d="M356.574 519.529v7.865h-16.056v41.895h-75.879v-13.225h16.009V519.529z"/><path fill="#fff" d="M339.418 629.183h16.033v28.671h-16.033z"/><path fill="#f6cc4b" d="M355.451 622.161v7.022h-16.033v37.378h-75.903v-8.707h16.009v-35.693z"/><path fill="#fff" d="M264.639 578.58h16.009v28.672h-16.009zM264.639 527.394h16.009v28.671h-16.009z"/><path fill="#f6cc4b" d="M280.648 519.529v7.865h-16.009v41.895h-76.488V556.65h16.032v-37.121z"/><path fill="#fff" d="M263.515 629.183h16.009v28.671h-16.009z"/><path fill="#f6cc4b" d="M279.524 622.161v7.022h-16.009v37.378h-76.488v-8.123h16.01v-36.277z"/><path fill="#fff" d="M188.151 579.119h16.032v28.694h-16.032zM188.151 527.955h16.032v28.695h-16.032z"/><path fill="#f6cc4b" d="M204.183 519.529v8.426h-16.032v41.334H129.24v-49.76z"/><path fill="#fff" d="M187.027 629.744h16.009v28.694h-16.009z"/><path fill="#f6cc4b" d="M203.037 622.161v7.583h-16.01v36.817H129.24v-44.4zM125.729 622.161v44.54H63.308v-44.54h.421zM125.729 569.289v52.872H63.308v-52.872h62.421zm-23.334 34.593V575.21H86.362v28.672h16.033zM125.729 519.529v49.76H63.308v-49.76h62.421zm-22.211 33.75v-28.694H87.485v28.694h16.033zM123.623 468.482h2.106v51.047H63.308v-51.047h1.685z"/><path fill="#c8c8c8" d="M123.623 465.955v2.527h-58.63v-2.761l16.454-27.314h25.301l16.57 27.548z"/><path fill="#fff" d="M87.485 524.585h16.033v28.694H87.485zM86.362 575.21h16.033v28.672H86.362z"/><g fill="none" stroke="#231f20" stroke-width="14.527"><path d="M504.611 622.161v44.4H129.24V503.777h375.371v65.512zM636.476 622.161v44.423h-60.432V503.777h60.432v65.512zM571.667 622.161v44.4h-62.444V468.343h62.444v100.946zM569.279 465.814l-16.593-27.547h-25.301l-16.431 27.267-.164.28M510.954 419.707V469.887M569.561 419.707V469.887M125.729 622.161v44.54H63.308V468.482H125.729V569.289zM123.318 465.955l-16.57-27.548H81.447l-16.454 27.314-.14.234M64.993 419.847V470.027M123.623 419.824v50.203M700.513 666.584v.023h-62.422V468.39H700.513V622.161zM698.125 465.861L681.53 438.29h-25.324l-16.43 27.337-.14.234M639.776 419.753v50.181M698.383 419.73V469.934M780.745 622.161v44.4h-62.422V403.674h62.422v165.615zM63.729 622.161h718.678M62.605 569.289H781.26M56.965 519.529h718.678M788.024 335.354h1.966v66.916h-79.858v-66.916h39.063z"/><path d="M749.195 345.489c12.451 0 22.516 10.064 22.516 22.469 0 12.428-10.064 22.516-22.516 22.516-12.405 0-22.47-10.088-22.47-22.516.001-12.405 10.065-22.469 22.47-22.469zM788.024 333.107l-24.459-57.342v-28.414l-.444-2.247-13.06-65.229-13.06 65.229-.445 2.247v28.414l-24.458 57.342M735.994 245.104h27.571M738.546 275.18h22.469M696.65 518.125h83.205M719.119 475.388H782.103M698.195 666.584H725.182M188.151 527.955h16.032v28.695h-16.032zM86.362 575.21h16.033v28.672H86.362zM87.485 524.585h16.033v28.694H87.485zM188.151 579.119h16.032v28.694h-16.032zM532.861 523.462h16.032v28.671h-16.032zM663.321 523.462h16.032v28.671h-16.032zM662.198 574.648h16.056v28.671h-16.056zM532.861 577.995h16.032v28.695h-16.032zM187.027 629.744h16.009v28.694h-16.009zM264.639 527.394h16.009v28.671h-16.009zM264.639 578.58h16.009v28.672h-16.009zM263.515 629.183h16.009v28.671h-16.009zM340.518 527.394h16.056v28.671h-16.056zM340.518 578.58h16.056v28.672h-16.056zM339.418 629.183h16.033v28.671h-16.033zM417.029 526.832h16.009v28.694h-16.009zM417.029 578.019h16.009v28.672h-16.009zM415.882 628.621h16.033v28.671h-16.033z"/><path stroke-linecap="round" stroke-linejoin="round" d="M195.594 476.511v26.425M273.064 476.769v26.447M348.967 476.347v26.448M424.894 476.347v26.448"/></g><path fill="none" d="M0 0h850.394v850.394H0z"/><path fill="none" d="M0 0h850.394v850.394H0z"/></svg>
